Newaita/actions/22/gtk-select-font.svg

<svg height="22" viewBox="0 0 22 22" width="22" xmlns="http://www.w3.org/2000/svg"><g fill="#424242"><path d="m6.367188 8.359375c-2.015626 0-3.636719 1.214844-3.636719 2.726563v8.1875h1.816406v-3.636719h3.640625v3.636719h1.816406v-8.1875c0-1.511719-1.621094-2.726563-3.636718-2.726563zm0 1.816406c1.007812 0 1.820312.40625 1.820312.910157v2.730468h-3.640625v-2.730468c0-.503907.8125-.910157 1.820313-.910157zm0 0"/><path d="m12.28125 2.902344c.75 0 1.363281.609375 1.363281 1.363281s-.613281 1.363281-1.363281 1.363281c-.753906 0-1.367188-.609375-1.367188-1.363281s.613282-1.363281 1.367188-1.363281zm0 0"/><path d="m17.738281 2.902344c.753907 0 1.363281.609375 1.363281 1.363281s-.609374 1.363281-1.363281 1.363281c-.753906 0-1.367187-.609375-1.367187-1.363281s.613281-1.363281 1.367187-1.363281zm0 0"/></g></svg>

<svg xmlns="http://www.w3.org/2000/svg" xmlns:xlink="http://www.w3.org/1999/xlink" width="22px" height="22px" viewBox="0 0 22 22" version="1.1">
<g id="surface1">
     <defs>
  <style id="current-color-scheme" type="text/css">
   .ColorScheme-Text { color:#424242; } .ColorScheme-Highlight { color:#eeeeee; }
  </style>
 </defs>
<path style="fill:currentColor" class="ColorScheme-Text" d="M 6.367188 8.359375 C 4.351562 8.359375 2.730469 9.574219 2.730469 11.085938 L 2.730469 19.273438 L 4.546875 19.273438 L 4.546875 15.636719 L 8.1875 15.636719 L 8.1875 19.273438 L 10.003906 19.273438 L 10.003906 11.085938 C 10.003906 9.574219 8.382812 8.359375 6.367188 8.359375 Z M 6.367188 10.175781 C 7.375 10.175781 8.1875 10.582031 8.1875 11.085938 L 8.1875 13.816406 L 4.546875 13.816406 L 4.546875 11.085938 C 4.546875 10.582031 5.359375 10.175781 6.367188 10.175781 Z M 6.367188 10.175781 "/>
     <defs>
  <style id="current-color-scheme" type="text/css">
   .ColorScheme-Text { color:#424242; } .ColorScheme-Highlight { color:#eeeeee; }
  </style>
 </defs>
<path style="fill:currentColor" class="ColorScheme-Text" d="M 12.28125 2.902344 C 13.03125 2.902344 13.644531 3.511719 13.644531 4.265625 C 13.644531 5.019531 13.03125 5.628906 12.28125 5.628906 C 11.527344 5.628906 10.914062 5.019531 10.914062 4.265625 C 10.914062 3.511719 11.527344 2.902344 12.28125 2.902344 Z M 12.28125 2.902344 "/>
     <defs>
  <style id="current-color-scheme" type="text/css">
   .ColorScheme-Text { color:#424242; } .ColorScheme-Highlight { color:#eeeeee; }
  </style>
 </defs>
<path style="fill:currentColor" class="ColorScheme-Text" d="M 17.738281 2.902344 C 18.492188 2.902344 19.101562 3.511719 19.101562 4.265625 C 19.101562 5.019531 18.492188 5.628906 17.738281 5.628906 C 16.984375 5.628906 16.371094 5.019531 16.371094 4.265625 C 16.371094 3.511719 16.984375 2.902344 17.738281 2.902344 Z M 17.738281 2.902344 "/>
</g>
</svg>
